X: 37044
T: Silver Heels Clog, The
R: hornpipe
M: 4/4
K: Amajor
a2 e>d c>ed>B|A>cE>A C>EA>c|B,>DF>B d>Bg>f|^e>fd>B G>=ef>g|
a2 e>d c>ed>B|A>cE>A C>EA>c|B,>DF>B d>Bf>e|^d>e (3gfe a2:|
A,2 c>A f>c (3agf|^e>fd>B G>BG>E|F>CA>F c>Af>e|^d/b/z ^a/b/z e3 =d|
c>eA>c E>Ac>e|d>fA>d F>Ad>f|e>cA>E C>EA>c|(3BAG d>G A2:|

